!!!!SEGMENT: pl-sa--78-a-ii-18--002_kraus-lambert--requiem-ex-dis-kyrie.krn
!!!cenid: 17xx:1682
!!!COM: Kraus, Lambert
!!!COM-rismid: pe30001779
!!!CDT: 1728-1790
!!!CNT:
!!!OPR: Requiem ex Dis
!!!OTL: Kyrie
!!!OMV: 002
!!!PDT:
!!!AGN: Sacred; Requiem
!!!SMS-siglum: PL-SA
!!!SMS-shelfmark: 78/A II 18
!!!SMS-shelfwork: 001-002 M
!!!SMS-variant:
!!!SMS-altvar:
!!!NIFC-rismid: 1001070176
!!!URL-scan: http://bc.bdsandomierz.pl/dlibra/publication/1355/edition/1323/content
!!!ONB-nifc: UWAGA: części Requiem: 1. Requiem, 2. Kyrie, 3. Dies irae, 4. Responde mihi, 5. Sanctus, 6. Benedictus, 7. Agnus Dei, 8. Lux aeterna
!!!OMD: Andante
!!!key: E-
**kern	**kern	**dynam	**kern	**dynam	**kern	**text	**kern	**text	**kern	**text	**kern	**text	**kern	**kern
*part9	*part8	*part8	*part7	*part7	*part6	*part6	*part5	*part5	*part4	*part4	*part3	*part3	*part2	*part1
*staff9	*staff8	*	*staff7	*	*staff6	*staff6	*staff5	*staff5	*staff4	*staff4	*staff3	*staff3	*staff2	*staff1
*I"Organo	*I"Violino 2do	*	*I"Violino 1mo	*	*I"Baſso	*	*I"Tenore	*	*I"Alto	*	*I"Canto	*	*I"Cornu 2do ex Dis	*I"Cornu 1mo ex Dis
*I'org (=bc)	*I'vl 2	*	*I'vl 1	*	*I'B	*	*I'T	*	*I'A	*	*I'S	*	*I'cor 2	*I'cor 1
*Iorgan	*Ivioln	*	*Ivioln	*	*Ibass	*	*Itenor	*	*Ialto	*	*Isoprn	*	*Icor	*Icor
*ICklav	*ICstr	*	*ICvox	*	*ICvox	*	*ICvox	*	*ICvox	*	*ICvox	*	*ICbras	*ICbras
*clefF4	*clefG2	*	*clefG2	*	*clefF4	*	*clefC4	*	*clefC3	*	*clefC1	*	*clefG2	*clefG2
*	*	*	*	*	*	*	*	*	*	*	*	*	*ITrd-2c-3	*ITrd-2c-3
*ok[a-e-b-]	*ok[e-b-a-]	*	*ok[e-b-a-]	*	*ok[a-b-e-]	*	*ok[a-b-e-]	*	*ok[g-b-e-]	*	*ok[a-b-e-]	*	*	*
*k[b-e-a-]	*k[b-e-a-]	*	*k[b-e-a-]	*	*k[b-e-a-]	*	*k[b-e-a-]	*	*k[b-e-a-]	*	*k[b-e-a-]	*	*k[b-e-a-]	*k[b-e-a-]
*E-:	*E-:	*	*E-:	*	*E-:	*	*E-:	*	*E-:	*	*E-:	*	*	*
*M3/4	*M3/4	*	*M3/4	*	*M3/4	*	*M3/4	*	*M3/4	*	*M3/4	*	*M3/4	*M3/4
=1	=1	=1	=1	=1	=1	=1	=1	=1	=1	=1	=1	=1	=1	=1
!	!	!	!LO:TX:a:i:t=Andante	!	!LO:TX:a:i:t=Ada&colon;:rj	!	!	!	!LO:TX:a:i:t=adante	!	!LO:TX:a:i:t=ada&colon;:rj	!	!	!
4E-\	4g/	.	8ee-\L	.	8E-\	Ky-	8B-\	Ky-	8g\	Ky-	8ee-\	Ky-	8ee-\L	8gg\L
.	.	.	8b-\J	.	8E-\	-rie	8B-\	-ri-	8g\	-ri-	8b-\	-ri-	8gg\J	8bb-\J
4EE-/	4g/	.	4b-\	.	4E-\	.	4B-\	-e	4g\	-e	4b-\	-e	4gg\	4bb-\
8r	8r	.	8r	.	8r	.	8r	.	8r	.	8r	.	8r	8r
16r	16r	.	16r	.	16r	.	16r	.	16r	.	16r	.	16r	16r
16A-\	16a-/	.	16cc\	.	16A-\	e-	16e-\	e-	16a-\	E-	16cc\	e-	16aa-\	16ccc\
=2	=2	=2	=2	=2	=2	=2	=2	=2	=2	=2	=2	=2	=2	=2
4B-\	8g/L	.	8b-/L	.	4B-\	-ley-	4B-\	-ley-	8g\	-ley-	8b-\	-le-	8gg\L	8bb-\L
.	8f/J	.	8a-/J	.	.	.	.	.	8f\	.	8a-\	-y-	8ff\J	8aa-\J
4E-\	4e-/	.	4g/	.	4E-\	-son	4B-\	-son	4e-\	-son	4g\	-ſon	4ee-\	4gg\
8r	8r	.	8r	.	8r	.	8r	.	8r	.	8r	.	8r	8r
16r	16r	.	16r	.	16r	.	16r	.	16r	.	16r	.	16r	16r
16E-\	16B-/	.	16g/	.	16A-\	e-	16G/	e-	16b-\	e-	16g\	e-	16gg\	16bb-\
!	!	!	!LO:LB:g=original	!	!	!	!	!	!	!	!	!	!	!
=3	=3	=3	=3	=3	=3	=3	=3	=3	=3	=3	=3	=3	=3	=3
.	.	.	8qqg/	.	.	.	.	.	.	.	.	.	.	.
4A-\	4c/	.	4f/	.	4A-\	-ley-	4F/	-ley-	4a-\	-ley-	4f/	-ley-	4ff\	4aa-\
.	.	.	8qqf/	.	.	.	.	.	.	.	.	.	.	.
4B-\	4G/	.	4e-/	.	4B-\	.	4E-/	.	4g\	.	4e-/	.	4ee-\	4gg\
.	.	.	8qqe-/	.	.	.	.	.	.	.	.	.	.	.
4BB-/	4A-/	.	4d/	.	4BB-/	.	4F/	.	4f\	.	4d/	.	4b-/	4ff\
=4	=4	=4	=4	=4	=4	=4	=4	=4	=4	=4	=4	=4	=4	=4
*2\right	*	*	*	*	*2\right	*	*	*	*2\right	*	*	*	*	*2\right
2E-\	2G/	.	2e-/	.	2E-\	-son	2E-/	-son	2g\	-son	2e-/	-ſon	4g/	2ee-\
.	.	.	.	.	.	.	.	.	.	.	.	.	4r	.
!	!	!	!	!	!	!	!LO:TX:t=P:problem:błędnie wpisane cztery kolejne takty, wykreślone, \ndodane odsyłacze "vi-de" 	!	!	!	!	!	!	!
!	!	!	!	!	!	!	!LO:TX:a:t=vi	!	!	!	!	!	!	!
4r	4r	.	4r	.	4r	.	4r	.	4r	.	4r	.	4r	4r
!LO:LB:g=original	!LO:LB:g=original	!	!	!	!LO:LB:g=original	!	!LO:LB:g=original	!	!	!	!	!	!LO:LB:g=original	!
=5	=5	=5	=5	=5	=5	=5	=5	=5	=5	=5	=5	=5	=5	=5
!	!	!	!	!LO:DY:b:t=ffr	!	!	!LO:TX:a:t=de	!	!	!	!LO:TX:a:t=4	!	!	!
4r	4r	.	8e-|</L	ff	0.r	.	0.r	.	0.r	.	0.r	.	0.r	0.r
!	!	!	!	!LO:DY:b:t=pi	!	!	!	!	!	!	!	!	!	!
.	.	.	8B-/	p	.	.	.	.	.	.	.	.	.	.
!	!	!LO:DY:b:t=pi:rj	!	!	!	!	!	!	!	!	!	!	!	!
4G\	8G/L	p	8B-/	.	.	.	.	.	.	.	.	.	.	.
.	8G/	.	8B-/	.	.	.	.	.	.	.	.	.	.	.
4BB-/	8G/	.	8B-/	.	.	.	.	.	.	.	.	.	.	.
.	8G/J	.	8B-/J	.	.	.	.	.	.	.	.	.	.	.
=6	=6	=6	=6	=6	=6	=6	=6	=6	=6	=6	=6	=6	=6	=6
!	!	!	!	!LO:DY:b:t=ffr	!	!	!	!	!	!	!	!	!	!
4r	4r	.	8f|</L	ff	.	.	.	.	.	.	.	.	.	.
.	.	.	8A-/	.	.	.	.	.	.	.	.	.	.	.
!	!	!LO:DY:b:t=pi:rj	!	!LO:DY:a:t=pi	!	!	!	!	!	!	!	!	!	!
4F\	8A-/L	p	8B-/	p	.	.	.	.	.	.	.	.	.	.
.	8A-/	.	8B-/	.	.	.	.	.	.	.	.	.	.	.
4BB-/	8A-/	.	8B-/	.	.	.	.	.	.	.	.	.	.	.
.	8A-/J	.	8B-/J	.	.	.	.	.	.	.	.	.	.	.
=7	=7	=7	=7	=7	=7	=7	=7	=7	=7	=7	=7	=7	=7	=7
!	!	!	!	!LO:DY:b:t=ffr	!	!	!	!	!	!	!	!	!	!
4r	4r	.	8e-|</L	ff	.	.	.	.	.	.	.	.	.	.
.	.	.	8B-/	.	.	.	.	.	.	.	.	.	.	.
!	!	!LO:DY:b:t=pi:rj	!	!	!	!	!	!	!	!	!	!	!	!
4G\	8B-/L	p	8B-/	.	.	.	.	.	.	.	.	.	.	.
!	!	!	!	!LO:DY:a:t=pi	!	!	!	!	!	!	!	!	!	!
.	8B-/	.	8B-/	p	.	.	.	.	.	.	.	.	.	.
4BB-/	8B-/	.	8B-/	.	.	.	.	.	.	.	.	.	.	.
.	8B-/J	.	8B-/J	.	.	.	.	.	.	.	.	.	.	.
=8	=8	=8	=8	=8	=8	=8	=8	=8	=8	=8	=8	=8	=8	=8
!	!	!	!	!LO:DY:b:t=ffr	!	!	!	!	!	!	!	!	!	!
4r	4r	.	8f|</L	ff	.	.	.	.	.	.	.	.	.	.
.	.	.	8A-/	.	.	.	.	.	.	.	.	.	.	.
!	!	!LO:DY:b:t=pi:rj	!	!	!	!	!	!	!	!	!	!	!	!
4F\	8A-/L	p	8B-/	.	.	.	.	.	.	.	.	.	.	.
!	!	!	!	!LO:DY:a:t=pi	!	!	!	!	!	!	!	!	!	!
.	8A-/	.	8B-/	p	.	.	.	.	.	.	.	.	.	.
4BB-/	8A-/	.	8B-/	.	.	.	.	.	.	.	.	.	.	.
.	8A-/J	.	8B-/J	.	.	.	.	.	.	.	.	.	.	.
!	!	!	!	!	!	!	!	!	!LO:LB:g=original	!	!LO:LB:g=original	!	!	!LO:LB:g=original
=9	=9	=9	=9	=9	=9	=9	=9	=9	=9	=9	=9	=9	=9	=9
!	!LO:TX:t=P:problem:mixed beam	!LO:DY:b:t=ffr:rj	!LO:TX:t=P:problem:mixed beam	!	!	!	!	!	!	!	!	!	!	!
4E-\	8G/L	ff	8G/L	.	8r	.	8r	.	8r	.	8r	.	8r	8r
.	8gg\J	.	8bb-\J	ff	8E-\	e-	8e-\	e-	8g\	E-	8b-\	e-	8gg\	8bb-\
4B-\	4ff\	.	4aa-\	.	4B-\	-ley-	4d\	-ley-	4f\	-ley-	4a-\	-ley-	4ff\	4aa-\
4E-\	4ee-\	.	4gg\	.	8E-\	-son	8e-\	-son	8e-\	-son	8g\	-ſon	4ee-\	4gg\
.	.	.	.	.	8E-\	e-	8e-\	e-	8e-\	e-	8g\	e-	.	.
!	!	!	!LO:LB:g=original	!	!	!	!	!	!	!	!	!	!	!
=10	=10	=10	=10	=10	=10	=10	=10	=10	=10	=10	=10	=10	=10	=10
4B-\	4ee-\	.	4gg\	.	4B-\	-ley-	4e-\	-ley-	4e-\	-ley-	4g/	-ley-	4ee-\	4gg\
4BB-/	4dd\	.	4ff\	.	4BB-/	-son	4d\	-son	4d\	-son	4f/	-ſon	4b-/	4ff\
!	!LO:LB:g=original	!	!	!	!	!	!	!	!	!	!	!	!	!
=-	=-	=-	=-	=-	=-	=-	=-	=-	=-	=-	=-	=-	=-	=-
4r	8r	.	8r	.	8r	.	4r	.	8r	.	8r	.	4r	4r
.	16r	.	16r	.	16r	.	.	.	16r	.	16r	.	.	.
.	16d/	.	16b-\	.	16D\	e-	.	.	16d\	e-	16b-\	e-	.	.
!	!	!	!	!	!	!	!LO:LB:g=original	!	!	!	!	!	!	!
=11	=11	=11	=11	=11	=11	=11	=11	=11	=11	=11	=11	=11	=11	=11
1.r	16d/LL	.	16b-\LL	.	16D\LL	-ley-	0.r	.	16d\LL	-ley-	16b-\LL	-ley-	0.r	0.r
.	16c/JJ	.	16an\JJ	.	16C\JJ	.	.	.	16c\JJ	.	16an\JJ	.	.	.
.	16r	.	16r	.	16r	.	.	.	16r	.	16r	.	.	.
.	16e-/	.	16cc\	.	16E-\	.	.	.	16e-\	.	16cc\	.	.	.
.	16e-/LL	.	16cc\LL	.	16E-\LL	.	.	.	16e-\LL	.	16cc\LL	.	.	.
.	16d/JJ	.	16b-\JJ	.	16D\JJ	.	.	.	16d\JJ	.	16b-\JJ	.	.	.
.	16r	.	16r	.	16r	.	.	.	16r	.	16r	.	.	.
.	16b-\	.	16dd\	.	16B-\	.	.	.	16b-\	.	16dd\	.	.	.
.	16b-\LL	.	16dd\LL	.	16B-\LL	.	.	.	16b-\LL	.	16dd\LL	.	.	.
!	!LO:SIC:v:s=16an\JJ	!	!	!	!	!	!	!	!	!	!	!	!	!
.	16a-\JJ	.	16cc\JJ	.	16An\JJ	.	.	.	16an\JJ	.	16cc\JJ	.	.	.
.	16r	.	16r	.	16r	.	.	.	16r	.	16r	.	.	.
.	16cc\	.	16ee-\	.	16c\	.	.	.	16cc\	.	16ee-\	.	.	.
=12	=12	=12	=12	=12	=12	=12	=12	=12	=12	=12	=12	=12	=12	=12
.	16cc\LL	.	16ee-\LL	.	16c\LL	.	.	.	16cc\LL	.	16ee-\LL	.	.	.
.	16b-\JJ	.	16dd\JJ	.	16B-\JJ	.	.	.	16b-\JJ	.	16dd\JJ	.	.	.
.	16r	.	16r	.	16r	.	.	.	16r	.	16r	.	.	.
!	!	!	!	!	!LO:LB:g=original	!	!	!	!	!	!	!	!	!
=-	=-	=-	=-	=-	=-	=-	=-	=-	=-	=-	=-	=-	=-	=-
.	16dd\	.	16ff\	.	16d\	.	.	.	16dd\	.	16ff\	.	.	.
.	16dd\LL	.	16ff\LL	.	16d\LL	.	.	.	16dd\LL	.	16ff\LL	.	.	.
.	16cc\JJ	.	16ee-\JJ	.	16c\JJ	.	.	.	16cc\JJ	.	16ee-\JJ	.	.	.
!	!	!	!	!	!	!	!	!	!LO:LB:g=original	!	!LO:LB:g=original	!	!	!
=-	=-	=-	=-	=-	=-	=-	=-	=-	=-	=-	=-	=-	=-	=-
!	!	!	!	!	!LO:N:vis=8	!	!	!	!	!	!	!	!	!
.	16r	.	16r	.	16r	.	.	.	16r	.	16r	.	.	.
.	16ee-\	.	16gg\	.	16r	.	.	.	16ee-\	-ley-	16gg\	.	.	.
.	4dd\	.	4ff\	.	16e-\	.	.	.	8cc\	-son	8ff\	-ſon	.	.
.	.	.	.	.	8d\	-son	.	.	.	.	.	.	.	.
.	.	.	.	.	.	.	.	.	8r	.	16r	.	.	.
!	!	!	!	!	!LO:N:vis=8	!	!	!	!	!	!	!	!	!
.	.	.	.	.	16r	.	.	.	.	.	16ff\	e-	.	.
=13	=13	=13	=13	=13	=13	=13	=13	=13	=13	=13	=13	=13	=13	=13
4E-\	4g/	.	4cc\	.	0.r	.	.	.	0.r	.	16gg\LL	.	.	.
.	.	.	.	.	.	.	.	.	.	.	16cc\	.	.	.
.	.	.	.	.	.	.	.	.	.	.	16bn\	.	.	.
.	.	.	.	.	.	.	.	.	.	.	16cc\JJ	.	.	.
4E-\	4g/	.	4cc\	.	.	.	.	.	.	.	16r	.	.	.
.	.	.	.	.	.	.	.	.	.	.	16cc\LL	.	.	.
.	.	.	.	.	.	.	.	.	.	.	16b\	.	.	.
.	.	.	.	.	.	.	.	.	.	.	16cc\JJ	.	.	.
4E-\	4g/	.	4cc\	.	.	.	.	.	.	.	16r	.	.	.
.	.	.	.	.	.	.	.	.	.	.	16cc\LL	.	.	.
.	.	.	.	.	.	.	.	.	.	.	16dd\	.	.	.
.	.	.	.	.	.	.	.	.	.	.	16ee-\JJ	.	.	.
=14	=14	=14	=14	=14	=14	=14	=14	=14	=14	=14	=14	=14	=14	=14
4D\	4f/	.	4b-\	.	.	.	.	.	.	.	16ff\LL	.	.	.
.	.	.	.	.	.	.	.	.	.	.	16b-\	.	.	.
.	.	.	.	.	.	.	.	.	.	.	16an\	.	.	.
.	.	.	.	.	.	.	.	.	.	.	16b-\JJ	.	.	.
4D\	4f/	.	4b-\	.	.	.	.	.	.	.	16r	.	.	.
.	.	.	.	.	.	.	.	.	.	.	16b-\LL	.	.	.
.	.	.	.	.	.	.	.	.	.	.	16a\	.	.	.
.	.	.	.	.	.	.	.	.	.	.	16b-\JJ	.	.	.
4D\	4f/	.	4b-\	.	.	.	.	.	.	.	16r	.	.	.
.	.	.	.	.	.	.	.	.	.	.	16b-\LL	.	.	.
.	.	.	.	.	.	.	.	.	.	.	16cc\	.	.	.
.	.	.	.	.	.	.	.	.	.	.	16dd\JJ	.	.	.
!LO:LB:g=original	!LO:LB:g=original	!	!LO:LB:g=original	!	!	!	!	!	!	!	!	!	!	!
=15	=15	=15	=15	=15	=15	=15	=15	=15	=15	=15	=15	=15	=15	=15
*	*	*	*	*	*	*	*	*	*	*	*2\right	*	*	*
8r	8r	.	8r	.	.	.	0.r	.	.	.	2cc\	.	0.r	0.r
8En\L	8b-\L	.	8cc\L	.	.	.	.	.	.	.	.	.	.	.
8E\	8b-\	.	8cc\	.	.	.	.	.	.	.	.	.	.	.
8E\J	8b-\	.	8cc\J	.	.	.	.	.	.	.	.	.	.	.
4E\	8b-\	.	4cc\	.	.	.	.	.	.	.	16r	.	.	.
.	.	.	.	.	.	.	.	.	.	.	16b-\LL	.	.	.
.	8b-\J	.	.	.	.	.	.	.	.	.	16cc\	.	.	.
.	.	.	.	.	.	.	.	.	.	.	16dd\JJ	.	.	.
!	!	!	!	!	!	!	!	!	!	!	!LO:LB:g=original	!	!	!
=16	=16	=16	=16	=16	=16	=16	=16	=16	=16	=16	=16	=16	=16	=16
8r	8r	.	8r	.	.	.	.	.	.	.	2cc\	.	.	.
8En\L	8b-\L	.	8cc\L	.	.	.	.	.	.	.	.	.	.	.
8E\	8b-\	.	8cc\	.	.	.	.	.	.	.	.	.	.	.
8E\J	8b-\	.	8cc\J	.	.	.	.	.	.	.	.	.	.	.
4E\	8b-\	.	4cc\	.	.	.	.	.	.	.	16r	.	.	.
.	.	.	.	.	.	.	.	.	.	.	16b-\LL	.	.	.
.	8b-\J	.	.	.	.	.	.	.	.	.	16cc\	.	.	.
.	.	.	.	.	.	.	.	.	.	.	16dd\JJ	.	.	.
=17	=17	=17	=17	=17	=17	=17	=17	=17	=17	=17	=17	=17	=17	=17
8r	8r	.	8r	.	0.r	.	.	.	0.r	.	2cc\	.	.	.
8En\L	8b-\L	.	8cc\L	.	.	.	.	.	.	.	.	.	.	.
8E\	8b-\	.	8cc\	.	.	.	.	.	.	.	.	.	.	.
8E\J	8b-\	.	8cc\	.	.	.	.	.	.	.	.	.	.	.
4E\	8b-\	.	8cc\	.	.	.	.	.	.	.	8r	.	.	.
.	8g\J	.	8b-\J	.	.	.	.	.	.	.	16r	.	.	.
.	.	.	.	.	.	.	.	.	.	.	16b-\	.	.	.
=18	=18	=18	=18	=18	=18	=18	=18	=18	=18	=18	=18	=18	=18	=18
*	*	*	*Xtuplet	*	*	*	*	*	*	*	*	*	*	*
!	!	!	!	!	!	!	!	!	!	!	!LO:TUP:a:problem:klamra łukowa, kropka zamiast numeru	!	!	!
4F\	4f/	.	12a-/L	.	.	.	.	.	.	.	24a-\LL	.	.	.
.	.	.	.	.	.	.	.	.	.	.	24g\	.	.	.
.	.	.	12g/	.	.	.	.	.	.	.	24f\JJ	.	.	.
.	.	.	.	.	.	.	.	.	.	.	4f/	-ſon	.	.
.	.	.	12f/J	.	.	.	.	.	.	.	.	.	.	.
4FF/	4f/	.	4f/	.	.	.	.	.	.	.	.	.	.	.
.	.	.	.	.	.	.	.	.	.	.	8r	.	.	.
4r	4r	.	4r	.	.	.	.	.	.	.	4r	.	.	.
=19	=19	=19	=19	=19	=19	=19	=19	=19	=19	=19	=19	=19	=19	=19
!	!	!	!	!LO:DY:b:t=ffr	!	!	!	!	!	!	!LO:TX:a:t=2.	!	!	!
4r	4r	.	8b-|</L	ff	.	.	1.r	.	.	.	1.r	.	1.r	1.r
.	.	.	8f/	.	.	.	.	.	.	.	.	.	.	.
!	!	!LO:DY:b:t=pi:rj	!	!LO:DY:b:t=pi	!	!	!	!	!	!	!	!	!	!
4D\	8d/L	p	8f/	p	.	.	.	.	.	.	.	.	.	.
.	8d/	.	8f/	.	.	.	.	.	.	.	.	.	.	.
4FF/	8d/	.	8f/	.	.	.	.	.	.	.	.	.	.	.
.	8d/J	.	8f/J	.	.	.	.	.	.	.	.	.	.	.
=20	=20	=20	=20	=20	=20	=20	=20	=20	=20	=20	=20	=20	=20	=20
!	!	!	!	!LO:DY:b:t=ffr	!	!	!	!	!	!	!	!	!	!
4r	4r	.	8cc|</L	ff	.	.	.	.	.	.	.	.	.	.
.	.	.	8e-/	.	.	.	.	.	.	.	.	.	.	.
!	!	!	!	!LO:DY:b:t=pi	!	!	!	!	!	!	!	!	!	!
4C\	8e-/L	.	8f/	p	.	.	.	.	.	.	.	.	.	.
.	8e-/	.	8f/	.	.	.	.	.	.	.	.	.	.	.
4FF/	8e-/	.	8f/	.	.	.	.	.	.	.	.	.	.	.
.	8e-/J	.	8f/J	.	.	.	.	.	.	.	.	.	.	.
!LO:LB:g=original	!LO:LB:g=original	!	!	!	!	!	!	!	!	!	!	!	!	!
=21	=21	=21	=21	=21	=21	=21	=21	=21	=21	=21	=21	=21	=21	=21
!	!LO:TX:t=P:problem:mixed beam	!	!LO:TX:t=P:problem:mixed beam	!	!	!	!	!	!	!	!	!	!	!
8D\L	16d/LL	.	16d/LL	.	8r	.	8r	.	8r	.	8r	.	4r	4r
!	!	!	!	!LO:DY:b:t=ffr	!	!	!	!	!	!	!	!	!	!
.	16dd\	.	16ff\	ff	.	.	.	.	.	.	.	.	.	.
8E-\J	16ee-\	.	16gg\	.	16r	.	16r	.	16r	.	16r	.	.	.
.	16cc\JJ	.	16ee-\JJ	.	16E-\	e-	16c\	e-	16g\	E-	16ee-\	e-	.	.
4F\	4b-\	.	4dd\	.	(4F\	-ley-	4B-\	-ley-	2f\	-ley-	4dd\	-ley-	4ff\	4bb-\
4FF/	4an\	.	4cc\	.	4FF/)	.	4An\	.	.	.	4cc\	.	4ff\	4aaX\
=22	=22	=22	=22	=22	=22	=22	=22	=22	=22	=22	=22	=22	=22	=22
*	*2\right	*	*2\right	*	*	*	*2\right	*	*	*	*	*	*	*
!	!	!	!	!LO:DY:b:t=pi	!	!	!	!	!	!	!	!	!	!
2BB-/	2b-\	.	2b-\	p	2BB-/	-son	2B-\	-son	2g\	-son	2b-\	-ſon	2b-/	2bb-\
4r	4r	.	4r	.	4r	.	4r	.	4r	.	4r	.	4r	4r
=23	=23	=23	=23	=23	=23	=23	=23	=23	=23	=23	=23	=23	=23	=23
!	!	!	!	!	!	!	!	!	!LO:TX:t=P:problem:nadmiarowy takt. Nuta wydrapana, pauza została	!	!	!	!	!
!LO:TX:t=P:problem:nadmiarowy takt partii Alto	!LO:TX:t=P:problem:nadmiarowy takt partii Alto	!	!LO:TX:t=P:problem:nadmiarowy takt partii Alto	!	!LO:TX:t=P:problem:nadmiarowy takt partii Alto	!	!LO:TX:t=P:problem:nadmiarowy takt partii Alto	!	!	!	!LO:TX:t=P:problem:nadmiarowy takt partii Alto	!	!LO:TX:t=P:problem:nadmiarowy takt partii Alto	!LO:TX:t=P:problem:nadmiarowy takt partii Alto
2.ryy	2.ryy	.	2.ryy	.	2.ryy	.	2.ryy	.	2g\	.	2.ryy	.	2.ryy	2.ryy
.	.	.	.	.	.	.	.	.	4r	.	.	.	.	.
=24	=24	=24	=24	=24	=24	=24	=24	=24	=24	=24	=24	=24	=24	=24
!	!	!	!L	!LO:DY:b:t=ffr	!	!	!	!	!	!	!LO:TX:a:t=2	!	!	!
4r	4r	.	8b-|</L	ff	1.r	.	1.r	.	1.r	.	1.r	.	1.r	1.r
.	.	.	8f/	.	.	.	.	.	.	.	.	.	.	.
!	!	!LO:DY:b:t=pi:rj	!	!LO:DY:b:t=pi	!	!	!	!	!	!	!	!	!	!
4D\	8d/L	p	8f/	p	.	.	.	.	.	.	.	.	.	.
.	8d/	.	8f/	.	.	.	.	.	.	.	.	.	.	.
4FF/	8d/	.	8f/	.	.	.	.	.	.	.	.	.	.	.
.	8d/J	.	8f/J	.	.	.	.	.	.	.	.	.	.	.
=25	=25	=25	=25	=25	=25	=25	=25	=25	=25	=25	=25	=25	=25	=25
!	!	!	!	!LO:DY:b:t=ffr	!	!	!	!	!	!	!	!	!	!
4r	4r	.	8cc|</L	ff	.	.	.	.	.	.	.	.	.	.
.	.	.	8e-/	.	.	.	.	.	.	.	.	.	.	.
!	!	!LO:DY:b:t=pi:rj	!	!LO:DY:b:t=pi	!	!	!	!	!	!	!	!	!	!
4C\	8e-/L	p	8f/	p	.	.	.	.	.	.	.	.	.	.
.	8e-/	.	8f/	.	.	.	.	.	.	.	.	.	.	.
4FF/	8e-/	.	8f/	.	.	.	.	.	.	.	.	.	.	.
.	8e-/J	.	8f/J	.	.	.	.	.	.	.	.	.	.	.
!	!	!	!	!	!	!	!	!	!	!	!LO:LB:g=original	!	!	!
=26	=26	=26	=26	=26	=26	=26	=26	=26	=26	=26	=26	=26	=26	=26
!	!LO:TX:t=P:problem:mixed beam	!LO:DY:b:t=ffr:rj	!LO:TX:t=P:problem:mixed beam	!	!	!	!	!	!	!	!	!	!	!
8D\L	16d/LL	ff	16d/LL	.	8r	.	8r	.	8r	.	8r	.	4r	4r
!	!	!	!	!LO:DY:b:t=ffr	!	!	!	!	!	!	!	!	!	!
.	16dd\	.	16ff\	ff	.	.	.	.	.	.	.	.	.	.
8E-\J	16ee-\	.	16gg\	.	16r	.	16r	.	16r	.	16r	.	.	.
.	16cc\JJ	.	16ee-\JJ	.	16E-\	e-	16c\	e-	16g\	e-	16ee-\	e-	.	.
4F\	4b-\	.	4dd\	.	4F\	-le-	4B-\	-ley-	2f\	-ley-	4dd\	-ley-	4ff\	4bb-\
4FF/	4an\	.	4cc\	.	4FF/	-y-	4An\	.	.	.	4cc\	.	4ff\	4aaX\
!	!	!	!	!	!LO:LB:g=original	!	!	!	!	!	!	!	!	!
=27	=27	=27	=27	=27	=27	=27	=27	=27	=27	=27	=27	=27	=27	=27
2BB-/	8b-\L	.	8b-\L	.	2GG/	-son	2B-\	-son	2g\	-son	2b-\	-ſon	2b-/	2bb-\
.	8a-X\	.	8cc\	.	.	.	.	.	.	.	.	.	.	.
.	8g\	.	8b-\	.	.	.	.	.	.	.	.	.	.	.
.	8cc\	.	8aa-X\	.	.	.	.	.	.	.	.	.	.	.
4r	8b-\	.	8gg\	.	4r	.	4r	.	4r	.	4r	.	4r	4r
.	8a-\J	.	8ff\J	.	.	.	.	.	.	.	.	.	.	.
!	!LO:LB:g=original	!	!LO:LB:g=original	!	!	!	!LO:PB:g=original	!	!LO:LB:g=original	!	!	!	!LO:LB:g=original	!LO:LB:g=original
=28	=28	=28	=28	=28	=28	=28	=28	=28	=28	=28	=28	=28	=28	=28
4E-\	4g/	.	8ee-\L	.	8E-\	Ky-	8B-\	Ky-	8g\	Ky-	8ee-\	Ky-	8ee-\L	8gg\L
.	.	.	8b-\J	.	8E-\	-ri-	8B-\	-ri-	8g\	-ri-	8b-\	-ri-	8gg\J	8bb-\J
!	!	!	!	!	!	!	!LO:N:vis=8	!	!	!	!	!	!	!
4EE-/	4g/	.	4b-\	.	4E-\	-e	4B-\	-e	4g\	-e	4b-\	-e	4gg\	4bb-\
8r	8r	.	8r	.	8r	.	8r	.	8r	.	8r	.	8r	8r
16r	16r	.	16r	.	16r	.	16r	.	16r	.	16r	.	16r	16r
16A-\	16a-/	.	16cc\	.	16A-\	e-	16e-\	e-	16a-\	e-	16cc\	e-	16aa-\	16ccc\
!LO:LB:g=original	!	!	!	!	!	!	!	!	!	!	!	!	!	!
=29	=29	=29	=29	=29	=29	=29	=29	=29	=29	=29	=29	=29	=29	=29
4B-\	8g/L	.	8b-/L	.	4B-\	-ley-	4B-\	-ley-	8g\L	-ley-	8b-\L	-ley-	8gg\L	16bb-\LL
.	.	.	.	.	.	.	.	.	.	.	.	.	.	16aa-\JJ
.	8f/J	.	8a-/J	.	.	.	.	.	8f\J	.	8a-\J	.	8ff\J	4.gg\
4E-\	4e-/	.	4g/	.	4E-\	-ſon	4B-\	-son	4e-\	-son	4g\	-ſon	4ee-\	.
8r	8r	.	8r	.	8r	.	8r	.	8r	.	8r	.	8r	8r
16r	16r	.	16r	.	16r	.	16r	.	16r	.	16r	.	16r	16r
16E-\	16G/	.	16g/	.	16E-\	e-	16G/	e-	16b-\	e-	16g/	e-	16gg\	16bb-\
=30	=30	=30	=30	=30	=30	=30	=30	=30	=30	=30	=30	=30	=30	=30
4A-\	4A-/	.	4f/	.	4A-\	-ley-	4F/	-ley-	4a-\	-ley-	4f/	-ley-	4ff\	4aa-\
4B-\	4G/	.	4e-/	.	4B-\	.	4E-/	.	4g\	.	4e-/	.	4ee-\	4gg\
4BB-/	4A-/	.	4d/	.	4BB-/	.	4F/	.	4f\	.	4d/	.	4b-/	4ff\
=31	=31	=31	=31	=31	=31	=31	=31	=31	=31	=31	=31	=31	=31	=31
!	!	!	!	!LO:DY:b:t=ffr	!	!	!	!	!	!	!	!	!	!
2E-\	4.G/	.	4.e-/	ff	2E-\	-ſon	2G/	-son	2g\	-son	2e-/	-ſon	4g/	4ee-\
.	.	.	.	.	.	.	.	.	.	.	.	.	4r	4r
!	!	!	!	!LO:DY:b:t=pi	!	!	!	!	!	!	!	!	!	!
.	8g/L	.	8b-\L	p	.	.	.	.	.	.	.	.	.	.
4r	8g/	.	8b-\	.	4r	.	4r	.	4r	.	4r	.	4r	4r
.	8a-/J	.	8cc\J	.	.	.	.	.	.	.	.	.	.	.
=32	=32	=32	=32	=32	=32	=32	=32	=32	=32	=32	=32	=32	=32	=32
!	!	!	!	!	!	!	!	!	!	!	!LO:TX:a:t=3	!	!	!
4E-\	4g/	.	4dd-X\	.	4B-\	Chri-	4d-X\	Chri-	4b-\	Chri-	1.r	.	0.r	0.r
4E-\	4g/	.	4dd-\	.	4B-\	-ste	4d-\	-ste	4b-\	-ste	.	.	.	.
!	!	!	!	!	!LO:LB:g=original	!	!	!	!	!	!	!	!	!
=-	=-	=-	=-	=-	=-	=-	=-	=-	=-	=-	=-	=-	=-	=-
4r	4r	.	4r	.	16r	.	16r	.	16r	.	.	.	.	.
!	!	!	!	!	!	!	!LO:LB:g=original	!	!	!	!	!	!	!
=-	=-	=-	=-	=-	=-	=-	=-	=-	=-	=-	=-	=-	=-	=-
.	.	.	.	.	16G\LL	e-	16B-\LL	.	16g\LL	.	.	.	.	.
.	.	.	.	.	16G\	.	16B-\	e-	16g\	e-	.	.	.	.
.	.	.	.	.	16A-\JJ	.	16c\JJ	.	16a-\JJ	.	.	.	.	.
=33	=33	=33	=33	=33	=33	=33	=33	=33	=33	=33	=33	=33	=33	=33
4E-\	4g/	.	4dd-X\	.	4B-\	-ley-	4d-X\	-ley-	4b-\	-ley-	.	.	.	.
4E-\	4g/	.	4dd-\	.	4B-\	-ſon	4d-\	-son	4b-\	-son	.	.	.	.
4r	4r	.	4r	.	16r	.	16r	.	16r	.	.	.	.	.
.	.	.	.	.	16G\LL	.	16B-\LL	.	16g\LL	.	.	.	.	.
.	.	.	.	.	16G\	e-	16B-\	e-	16g\	.	.	.	.	.
.	.	.	.	.	16A-\JJ	.	16c\JJ	.	16a-\JJ	e-	.	.	.	.
!	!LO:LB:g=original	!	!LO:LB:g=original	!	!	!	!	!	!LO:LB:g=original	!	!	!	!	!
=34	=34	=34	=34	=34	=34	=34	=34	=34	=34	=34	=34	=34	=34	=34
!	!	!	!LO:SIC:v:s=4dd-\	!	!	!	!	!	!	!	!	!	!	!
4E-\	4g/	.	4dd\	.	4B-\	-ley-	4d-X\	-ley-	4b-\	-ley-	2.r	.	.	.
!	!	!	!LO:SIC:v:s=4dd-\	!	!	!	!	!	!	!	!	!	!	!
4E-\	4g/	.	4dd\	.	4B-\	-son	4d-\	-son	4b-\	-son	.	.	.	.
8r	8r	.	4r	.	4r	.	4r	.	4r	.	.	.	.	.
16r	16r	.	.	.	.	.	.	.	.	.	.	.	.	.
16E-\	16g/	.	.	.	.	.	.	.	.	.	.	.	.	.
!	!	!	!	!	!	!	!	!	!	!	!LO:LB:g=original	!	!	!
=35	=35	=35	=35	=35	=35	=35	=35	=35	=35	=35	=35	=35	=35	=35
8A-\L	8a-/L	.	8cc\L	.	8r	.	8r	.	8r	.	8r	.	.	.
8D-X\J	8b-/J	.	16ff\L	.	16r	.	16r	.	16r	.	16r	.	.	.
.	.	.	16dd-X\JJ	.	16D-X\	e-	16B-\	e-	16b-\	e-	16dd-X\	e-	.	.
4E-\	4a-/	.	4cc\	.	2E-\	-ley-	(4c\	-ley-	4a-\	-ley-	4cc\	-ley-	.	.
4EE-/	4g/	.	4b-\	.	.	.	4B-\)	.	4g\	.	4b-\	.	.	.
!LO:LB:g=original	!	!	!	!	!	!	!	!	!	!	!	!	!	!
=36	=36	=36	=36	=36	=36	=36	=36	=36	=36	=36	=36	=36	=36	=36
!	!	!	!	!	!LO:SIC:v:s=2AA-/	!	!	!	!	!	!	!	!	!
2AA-/	4.a-/	.	4.a-\	.	2BB-/	-son	2c\	-son	2a-\	-ſon	2a-\	-ſon	0.r	0.r
.	8an/L	.	8cc\L	.	.	.	.	.	.	.	.	.	.	.
4r	8a/	.	8cc\	.	4r	.	4r	.	4r	.	4r	.	.	.
.	8b-/J	.	8ddn\J	.	.	.	.	.	.	.	.	.	.	.
=37	=37	=37	=37	=37	=37	=37	=37	=37	=37	=37	=37	=37	=37	=37
4F\	4cc\	.	4ee-\	.	4c\	Chri-	1.r	.	4cc\	Chri-	4ee-\	Chri-	.	.
4F\	4cc\	.	4ee-\	.	4c\	-ste	.	.	4cc\	-ste	4ee-\	-ste	.	.
!	!	!	!	!	!LO:LB:g=original	!	!	!	!	!	!	!	!	!
=-	=-	=-	=-	=-	=-	=-	=-	=-	=-	=-	=-	=-	=-	=-
4r	4r	.	4r	.	16r	.	.	.	16r	.	16r	.	.	.
.	.	.	.	.	16An\LL	e-	.	.	16an\LL	e-	16cc\LL	.	.	.
.	.	.	.	.	16A\	.	.	.	16a\	.	16cc\	e-	.	.
.	.	.	.	.	16B-\JJ	.	.	.	16b-\JJ	.	16dd\JJ	.	.	.
=38	=38	=38	=38	=38	=38	=38	=38	=38	=38	=38	=38	=38	=38	=38
4F\	4an\	.	4ee-\	.	4c\	-ley-	.	.	4cc\	-ley-	4ee-\	-ley-	.	.
4FF/	4a\	.	4ee-\	.	4c\	-ſon	.	.	4cc\	-son	4ee-\	-ſon	.	.
4r	4r	.	4r	.	16r	.	.	.	16r	.	16r	.	.	.
.	.	.	.	.	16An\LL	e-	.	.	16an\LL	.	16cc\LL	.	.	.
.	.	.	.	.	16A\	.	.	.	16a\	e-	16cc\	e-	.	.
.	.	.	.	.	16B-\JJ	.	.	.	16b-\JJ	.	16dd\JJ	.	.	.
=39	=39	=39	=39	=39	=39	=39	=39	=39	=39	=39	=39	=39	=39	=39
!	!LO:SIC:v:s=4an/	!	!	!	!	!	!	!	!	!	!	!	!	!
4F\	4a-/	.	4ee-\	.	4c\	-ley-	2.r	.	4cc\	-ley-	4ee-\	-ley-	.	.
!	!LO:SIC:v:s=4an/	!	!	!	!	!	!	!	!	!	!	!	!	!
4FF/	4a-/	.	4ee-\	.	4c\	-ſon	.	.	4cc\	-son	4ee-\	-ſon	.	.
8r	8r	.	8r	.	4r	.	.	.	4r	.	4r	.	.	.
16r	16r	.	16r	.	.	.	.	.	.	.	.	.	.	.
16E-\	16a-/	.	16ee-\	.	.	.	.	.	.	.	.	.	.	.
!	!LO:LB:g=original	!	!	!	!	!	!	!	!LO:LB:g=original	!	!	!	!	!
=40	=40	=40	=40	=40	=40	=40	=40	=40	=40	=40	=40	=40	=40	=40
8B-\L	8b-\L	.	8dd\L	.	8r	.	8r	.	8r	.	8r	.	2.r	2.r
8E-\J	8cc\J	.	16gg\L	.	16r	.	16r	.	16r	.	16r	.	.	.
.	.	.	16ee-\JJ	.	16c\	e-	16c\	e-	16cc\	e-	16ee-\	e-	.	.
=-	=-	=-	=-	=-	=-	=-	=-	=-	=-	=-	=-	=-	=-	=-
4F\	4b-\	.	4dd\	.	4B-\	-ley-	(4d\	-ley-	4b-\	-ley-	4dd\	-ley-	.	.
4FF/	4an\	.	4cc\	.	4An\	.	4c\)	.	4an\	.	4cc\	.	.	.
!	!	!	!LO:PB:g=original	!	!	!	!	!	!	!	!LO:LB:g=original	!	!	!
=41	=41	=41	=41	=41	=41	=41	=41	=41	=41	=41	=41	=41	=41	=41
2BB-/	4.b-\	.	4.b-\	.	2B-\	-ſon	2d\	-son	2b-\	-son	2b-\	-ſon	4r	4r
.	.	.	.	.	.	.	.	.	.	.	.	.	8r	8r
.	8dd\L	.	8ff\L	.	.	.	.	.	.	.	.	.	8b-/L	8ff\L
4r	8dd\	.	8ff\	.	4r	.	4r	.	4r	.	4r	.	8b-/	8ff\
.	8ee-\J	.	8gg\J	.	.	.	.	.	.	.	.	.	8b-/J	8gg\J
!	!	!	!	!	!LO:LB:g=original	!	!	!	!	!	!	!	!LO:LB:g=original	!LO:LB:g=original
=42	=42	=42	=42	=42	=42	=42	=42	=42	=42	=42	=42	=42	=42	=42
!	!	!	!	!	!	!	!	!	!	!	!LO:TX:a:t=5	!	!	!
4BB-/	4ff\	.	4aa-\	.	4A-\	Chri-	4f\	Chri-	4a-\	Chri-	0.r	.	4ff\	4aa-\
4BB-/	4ff\	.	4aa-\	.	4A-\	-ste	4f\	-ste	4a-\	-ste	.	.	4ff\	4aa-\
4r	4r	.	4r	.	16r	.	16r	.	16r	.	.	.	4r	4r
.	.	.	.	.	16F\LL	.	16d\LL	.	16f\LL	.	.	.	.	.
.	.	.	.	.	16F\	e-	16d\	e-	16f\	e-	.	.	.	.
.	.	.	.	.	16G\JJ	.	16e-\JJ	.	16g\JJ	.	.	.	.	.
!LO:LB:g=original	!	!	!	!	!	!	!	!	!	!	!	!	!	!
=43	=43	=43	=43	=43	=43	=43	=43	=43	=43	=43	=43	=43	=43	=43
4BB-/	4dd\	.	4aa-\	.	4A-\	-ley-	4f\	-ley-	4a-\	-ley-	.	.	4ff\	4aa-\
4BB-/	4dd\	.	4aa-\	.	4A-\	-ſon	4f\	-son	4a-\	-son	.	.	4ff\	4aa-\
4r	4r	.	4r	.	16r	.	16r	.	16r	.	.	.	4r	4r
.	.	.	.	.	16F\LL	.	16d\LL	.	16f\LL	.	.	.	.	.
.	.	.	.	.	16F\	e-	16d\	e-	16f\	e-	.	.	.	.
.	.	.	.	.	16G\JJ	.	16e-\JJ	.	16g\JJ	.	.	.	.	.
=44	=44	=44	=44	=44	=44	=44	=44	=44	=44	=44	=44	=44	=44	=44
4BB-/	4dd\	.	4aa-\	.	4A-\	-ley-	4f\	-ley-	4b-\	-ley-	.	.	4ff\	4aa-\
4BB-/	4dd\	.	4aa-\	.	4A-\	-ſon	4f\	-son	4a-\	-son	.	.	4ff\	4aa-\
4r	8r	.	8r	.	8r	.	8r	.	8r	.	.	.	4r	4r
.	16r	.	16r	.	16r	.	16r	.	16r	.	.	.	.	.
.	16ff\	.	16aa-\	.	16A-\	e-	16f\	e-	16a-\	e-	.	.	.	.
=45	=45	=45	=45	=45	=45	=45	=45	=45	=45	=45	=45	=45	=45	=45
8r	8ee-\L	.	8gg\L	.	4G\	-ley-	8e-\L	-ley-	4g\	-ley-	.	.	8ee-\L	8gg\L
16r	8gg\J	.	8bb-\J	.	.	.	8B-\J	.	.	.	.	.	8gg\J	8bb-\J
16E-\	.	.	.	.	.	.	.	.	.	.	.	.	.	.
4B-\	4ff\	.	4aa-\	.	4F\	-ſon	4A-\	-son	4f\	.	.	.	4ff\	4aa-\
4E-\	4ee-\	.	4gg\	.	8r	.	8r	.	8r	.	.	.	4ee-\	4gg\
.	.	.	.	.	16r	.	16r	.	16r	.	.	.	.	.
.	.	.	.	.	16E-\	e-	16G/	e	16e-\	e-	.	.	.	.
!	!	!	!	!	!	!	!LO:LB:g=original	!	!LO:LB:g=original	!	!	!	!	!
=46	=46	=46	=46	=46	=46	=46	=46	=46	=46	=46	=46	=46	=46	=46
4B-\	4ee-\	.	4gg\	.	4E-\	-ley-	4G/	ley-	4e-\	-ley-	2.r	.	4ee-\	4gg\
!	!LO:LB:g=original	!	!	!	!	!	!	!	!	!	!	!	!	!
=-	=-	=-	=-	=-	=-	=-	=-	=-	=-	=-	=-	=-	=-	=-
4E-\	8dd\L	.	8ff\L	.	4D\	-ſon	4F/	-son	4d\	-son	.	.	4b-\	4ff\
.	8cc\	.	8aa-\	.	.	.	.	.	.	.	.	.	.	.
4r	8b-\	.	8gg\	.	4r	.	4r	.	4r	.	.	.	4r	4r
.	8a-\J	.	8ff\J	.	.	.	.	.	.	.	.	.	.	.
!	!	!	!	!	!LO:LB:g=original	!	!	!	!	!	!	!	!	!
=47	=47	=47	=47	=47	=47	=47	=47	=47	=47	=47	=47	=47	=47	=47
4E-\	4g/	.	8ee-\L	.	8E-\	Ky-	8B-\	Ky-	8g\	Ky-	8.ee-\	Ky-	8ee-\L	8gg\L
.	.	.	8b-\J	.	8E-\	-ri-	8B-\	-ri-	8g\	-ri-	.	.	8gg\J	8bb-\J
.	.	.	.	.	.	.	.	.	.	.	16b-\	-ri-	.	.
4EE-/	4g/	.	4b-\	.	4E-\	-e	4B-\	-e	4g\	-e	4b-\	-e	4gg\	4bb-\
!	!	!	!LO:LB:g=original	!	!	!	!	!	!	!	!	!	!	!
=-	=-	=-	=-	=-	=-	=-	=-	=-	=-	=-	=-	=-	=-	=-
8r	8r	.	8r	.	8r	.	8r	.	8r	.	8r	.	8r	8r
16r	16r	.	16r	.	16r	.	16r	.	16r	.	16r	.	16r	16r
16A-\	16a-/	.	16cc\	.	16A-\	e-	16e-\	e-	16a-\	e-	16cc\	e-	16aa-\	16ccc\
!	!	!	!	!	!	!	!	!	!	!	!	!	!LO:LB:g=original	!LO:LB:g=original
=48	=48	=48	=48	=48	=48	=48	=48	=48	=48	=48	=48	=48	=48	=48
4B-\	8g/L	.	8b-/L	.	4B-\	-ley-	4B-\	-ley-	8g\L	.	8b-\L	-ley-	8gg\L	8bb-\L
.	8f/J	.	8a-/J	.	.	.	.	.	8f\J	-ley-	8a-\J	.	8ff\J	8aa-\J
4E-\	4e-/	.	4g/	.	4E-\	-ſon	4B-\	-son	4e-\	-son	4g\	-ſon	4ee-\	4gg\
4r	8r	.	8r	.	8r	.	8r	.	8r	.	8r	.	8r	8r
.	16r	.	16r	.	16r	.	16r	.	16r	.	16r	.	16r	16r
!	!LO:N:vis=8	!	!	!	!	!	!	!	!	!	!	!	!	!
.	16B-/	.	16g/	.	16E-\	e-	16G/	e-	16b-\	e-	16g/	e-	16gg\	16bb-\
=49	=49	=49	=49	=49	=49	=49	=49	=49	=49	=49	=49	=49	=49	=49
4A-\	4c/	.	8g/L	.	4A-\	-ley-	4F/	-ley-	4a-\	-ley-	4f/	-ley-	4ff\	4aa-\
.	.	.	8f/J	.	.	.	.	.	.	.	.	.	.	.
!	!LO:TX:t=P:problem:SIC.por.takt nr 3	!	!	!	!	!	!	!	!	!	!	!	!	!
!	!LO:SIC:v:s=4G/	!	!	!	!	!	!	!	!	!	!	!	!	!
4B-\	4B-/	.	4e-/	.	4B-\	.	4E-/	.	(4g\	.	4e-/	.	4ee-\	4gg\
!	!LO:TX:t=P:problem:SIC.por.takt nr 3	!	!	!	!	!	!	!	!	!	!	!	!	!
!	!LO:SIC:v:s=4A-/	!	!	!	!	!	!	!	!	!	!	!	!	!
4BB-/	4c/	.	4d/	.	4BB-/	.	4F/	.	4f\)	.	4d/	.	4b-/	4ff\
!LO:LB:g=original	!	!	!	!	!	!	!	!	!	!	!	!	!	!
=50	=50	=50	=50	=50	=50	=50	=50	=50	=50	=50	=50	=50	=50	=50
!	!LO:TX:a:i:t=tu stanąć	!	!LO:TX:a:i:t=tu stanąć	!	!LO:TX:a:i:t=tu stanąć	!	!LO:TX:a:i:t=tu stanąć	!	!LO:TX:a:i:t=tu stanąć	!	!LO:TX:a:i:t=tu stanąć	!	!	!
4E-\	2G/	.	2e-/	.	2E-\	-ſon	2G/	-son	2g\	-son	2e-/	-ſon	4g/	4ee-\
!LO:TX:a:i:t=tu stanąć	!	!	!	!	!	!	!	!	!	!	!	!	!	!
4EE-/	.	.	.	.	.	.	.	.	.	.	.	.	4r	4r
!	!	!	!	!	!	!	!	!	!LO:N:vis=4r	!	!	!	!	!
4r	8r	.	8r	.	8r	.	4r	.	8r	.	4r	.	4r	4r
.	16r	.	16r	.	16r	.	.	.	16r	.	.	.	.	.
.	16G/	.	16e-/	.	16E-\	e-	.	.	16e-\	e-	.	.	.	.
=51	=51	=51	=51	=51	=51	=51	=51	=51	=51	=51	=51	=51	=51	=51
!LO:TX:a:t=2	!	!	!	!	!	!	!	!	!	!	!LO:TX:a:t=12	!	!	!
1.r	16G/LL	.	16e-/LL	.	16E-\LL	-ley-	4r	.	16e-\LL	-ley-	0.r	.	0.r	0.r
.	16A-/JJ	.	16d/JJ	.	16D\JJ	.	.	.	16d\JJ	.	.	.	.	.
.	16r	.	16r	.	16r	.	.	.	16r	.	.	.	.	.
.	16G/	.	16f/	.	16F\	.	.	.	16f\	.	.	.	.	.
!	!LO:LB:g=original	!	!	!	!	!	!	!	!	!	!	!	!	!
=-	=-	=-	=-	=-	=-	=-	=-	=-	=-	=-	=-	=-	=-	=-
.	16A-/LL	.	16f/LL	.	16F\LL	.	8r	.	16f\LL	.	.	.	.	.
.	16B-/JJ	.	16e-/JJ	.	16E-\JJ	.	.	.	16e-\JJ	.	.	.	.	.
.	16r	.	16r	.	16r	.	16r	.	16r	.	.	.	.	.
.	16e-/	.	16g/	.	16G\	.	16E-/	e-	16g\	.	.	.	.	.
!	!	!	!	!	!LO:LB:g=original	!	!	!	!	!	!	!	!	!
=-	=-	=-	=-	=-	=-	=-	=-	=-	=-	=-	=-	=-	=-	=-
.	16e-/LL	.	16g/LL	.	16G\LL	.	16E-/LL	-ley-	16g\LL	.	.	.	.	.
.	16d/JJ	.	16f/JJ	.	16F\JJ	.	16D/JJ	.	16f\JJ	.	.	.	.	.
!	!	!	!LO:LB:g=original	!	!	!	!	!	!	!	!	!	!	!
=-	=-	=-	=-	=-	=-	=-	=-	=-	=-	=-	=-	=-	=-	=-
.	16r	.	16r	.	16r	.	16r	.	16r	.	.	.	.	.
.	16f/	.	16a-/	.	16A-\	.	16F/	.	16a-\	.	.	.	.	.
!	!	!	!	!	!	!	!LO:LB:g=original	!	!LO:LB:g=original	!	!	!	!	!
=52	=52	=52	=52	=52	=52	=52	=52	=52	=52	=52	=52	=52	=52	=52
.	16f/LL	.	16a-/LL	.	16A-\LL	.	16F/LL	.	16a-\LL	.	.	.	.	.
.	16e-/JJ	.	16g/JJ	.	16G\JJ	.	16E-/JJ	.	16g\JJ	.	.	.	.	.
.	16r	.	16r	.	16r	.	16r	.	16r	.	.	.	.	.
.	16g/	.	16b-/	.	16B-\	.	16G/	.	16b-\	.	.	.	.	.
.	16g/LL	.	16b-/LL	.	16B-\LL	.	16G/LL	.	16b-\LL	.	.	.	.	.
.	16f/JJ	.	16a-/JJ	.	16A-\JJ	.	16F/JJ	.	16a-\JJ	.	.	.	.	.
.	16r	.	16r	.	16r	.	16r	.	16r	.	.	.	.	.
.	16a-/	.	16cc\	.	16c\	.	16A-/	.	16cc\	-ley-	.	.	.	.
!	!	!	!	!	!	!	!	!	!LO:N:vis=16	!	!	!	!	!
.	4g/	.	4b-\	.	8B-\	-ſon	8G/	-son	8b-\	-son	.	.	.	.
.	.	.	.	.	16r	.	8r	.	16r	.	.	.	.	.
.	.	.	.	.	16B-\	e-	.	.	16b-\	e-	.	.	.	.
=53	=53	=53	=53	=53	=53	=53	=53	=53	=53	=53	=53	=53	=53	=53
4A-\	4c/	.	4f/	.	16c\LL	.	0.r	.	16cc\LL	.	.	.	.	.
.	.	.	.	.	16F\	-ley-	.	.	16f\	-ley-	.	.	.	.
.	.	.	.	.	16En\	.	.	.	16en\	.	.	.	.	.
.	.	.	.	.	16F\JJ	.	.	.	16f\JJ	.	.	.	.	.
4A-\	4c/	.	4f/	.	16r	.	.	.	16r	.	.	.	.	.
.	.	.	.	.	16F\LL	.	.	.	16f\LL	.	.	.	.	.
.	.	.	.	.	16E\	.	.	.	16e\	.	.	.	.	.
.	.	.	.	.	16F\JJ	.	.	.	16f\JJ	.	.	.	.	.
4A-\	4c/	.	4f/	.	16r	.	.	.	16r	.	.	.	.	.
.	.	.	.	.	16F\LL	.	.	.	16f\LL	.	.	.	.	.
.	.	.	.	.	16G\	.	.	.	16g\	.	.	.	.	.
.	.	.	.	.	16A-\JJ	.	.	.	16a-\JJ	.	.	.	.	.
=54	=54	=54	=54	=54	=54	=54	=54	=54	=54	=54	=54	=54	=54	=54
4G\	4B-/	.	4e-/	.	16B-\LL	.	.	.	16b-\LL	.	.	.	.	.
.	.	.	.	.	16E-X\	.	.	.	16e-X\	.	.	.	.	.
.	.	.	.	.	16D\	.	.	.	16d\	.	.	.	.	.
.	.	.	.	.	16E-\JJ	.	.	.	16e-\JJ	.	.	.	.	.
4G\	4B-/	.	4e-/	.	16r	.	.	.	16r	.	.	.	.	.
.	.	.	.	.	16E-\LL	.	.	.	16e-\LL	.	.	.	.	.
.	.	.	.	.	16D\	.	.	.	16d\	.	.	.	.	.
.	.	.	.	.	16E-\JJ	.	.	.	16e-\JJ	.	.	.	.	.
!	!	!	!	!	!LO:LB:g=original	!	!	!	!	!	!	!	!	!
=-	=-	=-	=-	=-	=-	=-	=-	=-	=-	=-	=-	=-	=-	=-
4G\	4B-/	.	4e-/	.	16r	.	.	.	16r	.	.	.	.	.
.	.	.	.	.	16E-\LL	.	.	.	16e-\LL	.	.	.	.	.
.	.	.	.	.	16F\	.	.	.	16f\	.	.	.	.	.
.	.	.	.	.	16G\JJ	.	.	.	16g\JJ	.	.	.	.	.
!	!LO:PB:g=original	!	!	!	!	!	!	!	!	!	!	!	!	!
=55	=55	=55	=55	=55	=55	=55	=55	=55	=55	=55	=55	=55	=55	=55
!	!LO:N:vis=16	!	!	!	!	!	!	!	!	!	!	!	!	!
8r	8r	.	8r	.	2F\	.	.	.	2f\	.	0.r	.	0.r	0.r
8An\L	8e-/L	.	8f/L	.	.	.	.	.	.	.	.	.	.	.
8A\	8e-/	.	8f/	.	.	.	.	.	.	.	.	.	.	.
8A\J	8e-/J	.	8f/J	.	.	.	.	.	.	.	.	.	.	.
4A\	4e-/	.	4f/	.	16r	.	.	.	16r	.	.	.	.	.
.	.	.	.	.	16E-\LL	.	.	.	16e-\LL	.	.	.	.	.
.	.	.	.	.	16F\	.	.	.	16f\	.	.	.	.	.
.	.	.	.	.	16G\JJ	.	.	.	16g\JJ	.	.	.	.	.
!	!	!	!	!	!	!	!	!	!LO:LB:g=original	!	!	!	!	!
=56	=56	=56	=56	=56	=56	=56	=56	=56	=56	=56	=56	=56	=56	=56
8r	8r	.	8r	.	2F\	.	.	.	2f\	.	.	.	.	.
8An\L	8e-/L	.	8f/L	.	.	.	.	.	.	.	.	.	.	.
8A\	8e-/	.	8f/	.	.	.	.	.	.	.	.	.	.	.
8A\J	8e-/J	.	8f/J	.	.	.	.	.	.	.	.	.	.	.
4A\	4e-/	.	4f/	.	16r	.	.	.	16r	.	.	.	.	.
.	.	.	.	.	16E-\LL	.	.	.	16e-\LL	.	.	.	.	.
.	.	.	.	.	16F\	.	.	.	16f\	.	.	.	.	.
.	.	.	.	.	16G\JJ	.	.	.	16g\JJ	.	.	.	.	.
!	!	!	!LO:LB:g=original	!	!	!	!	!	!	!	!	!	!	!
=57	=57	=57	=57	=57	=57	=57	=57	=57	=57	=57	=57	=57	=57	=57
8r	8r	.	8r	.	2F\	.	0.r	.	2f\	-son	.	.	.	.
8An\L	8e-/L	.	8f/L	.	.	.	.	.	.	.	.	.	.	.
8A\	8e-/	.	8f/	.	.	.	.	.	.	.	.	.	.	.
!	!	!LO:DY:b:t=pi	!	!	!	!	!	!	!	!	!	!	!	!
8A\J	8e-/	p	8f/	.	.	.	.	.	.	.	.	.	.	.
4A\	8e-/	.	8f/	.	8r	.	.	.	8r	.	.	.	.	.
.	8c/J	.	8e-/J	.	16r	.	.	.	16r	.	.	.	.	.
.	.	.	.	.	16E-\	-e-	.	.	16e-\	e-	.	.	.	.
=58	=58	=58	=58	=58	=58	=58	=58	=58	=58	=58	=58	=58	=58	=58
*	*	*	*	*	*Xtuplet	*	*	*	*Xtuplet	*	*	*	*	*
4B-\	4B-/	.	12d/L	.	24D/LL	-ley-	.	.	24d\LL	-ley-	.	.	.	.
.	.	.	.	.	24C/	.	.	.	24c\	.	.	.	.	.
.	.	.	12c/	.	24BB-/JJ	.	.	.	24B-\JJ	.	.	.	.	.
.	.	.	.	.	8BB-/	-ſon	.	.	8B-\	-son	.	.	.	.
.	.	.	12B-/J	.	.	.	.	.	.	.	.	.	.	.
4BB-/	4B-/	.	4B-/	.	4r	.	.	.	4r	.	.	.	.	.
4r	4r	.	4r	.	4r	.	.	.	4r	.	.	.	.	.
!LO:LB:g=original	!	!	!	!	!	!	!	!	!	!	!	!	!	!
=59	=59	=59	=59	=59	=59	=59	=59	=59	=59	=59	=59	=59	=59	=59
!	!	!	!	!LO:DY:b:t=ffr	!	!	!	!	!	!	!	!	!	!
4r	4r	.	8e-/L	ff	0.r	.	.	.	0.r	.	0.r	.	0.r	0.r
.	.	.	8B-/	.	.	.	.	.	.	.	.	.	.	.
!	!	!LO:DY:b:t=pi:rj	!	!LO:DY:a:t=pi	!	!	!	!	!	!	!	!	!	!
4G\	8B-/L	p	8B-/	p	.	.	.	.	.	.	.	.	.	.
.	8B-/	.	8B-/	.	.	.	.	.	.	.	.	.	.	.
4BB-/	8B-/	.	8B-/	.	.	.	.	.	.	.	.	.	.	.
.	8B-/J	.	8B-/J	.	.	.	.	.	.	.	.	.	.	.
!	!LO:LB:g=original	!	!	!	!	!	!	!	!	!	!	!	!	!
=60	=60	=60	=60	=60	=60	=60	=60	=60	=60	=60	=60	=60	=60	=60
!	!	!	!	!LO:DY:b:t=ffr	!	!	!	!	!	!	!	!	!	!
4r	4r	.	8f|</L	ff	.	.	.	.	.	.	.	.	.	.
.	.	.	8A-/	.	.	.	.	.	.	.	.	.	.	.
!	!	!LO:DY:b:t=pi:rj	!	!	!	!	!	!	!	!	!	!	!	!
4F\	8A-/L	p	8B-/	.	.	.	.	.	.	.	.	.	.	.
!	!	!	!	!LO:DY:a:t=pi	!	!	!	!	!	!	!	!	!	!
.	8A-/	.	8B-/	p	.	.	.	.	.	.	.	.	.	.
4BB-/	8A-/	.	8B-/	.	.	.	.	.	.	.	.	.	.	.
.	8A-/J	.	8B-/J	.	.	.	.	.	.	.	.	.	.	.
=61	=61	=61	=61	=61	=61	=61	=61	=61	=61	=61	=61	=61	=61	=61
!	!	!	!	!LO:DY:b:t=ffr	!	!	!	!	!	!	!	!	!	!
4r	4r	.	8e-|</L	ff	.	.	1.r	.	.	.	.	.	.	.
.	.	.	8B-/	.	.	.	.	.	.	.	.	.	.	.
!	!	!LO:DY:b:t=pi:rj	!	!	!	!	!	!	!	!	!	!	!	!
4G\	8G/L	p	8B-/	.	.	.	.	.	.	.	.	.	.	.
!	!	!	!	!LO:DY:a:t=pi	!	!	!	!	!	!	!	!	!	!
.	8G/	.	8B-/	p	.	.	.	.	.	.	.	.	.	.
4BB-/	8G/	.	8B-/	.	.	.	.	.	.	.	.	.	.	.
.	8G/J	.	8B-/J	.	.	.	.	.	.	.	.	.	.	.
=62	=62	=62	=62	=62	=62	=62	=62	=62	=62	=62	=62	=62	=62	=62
!	!	!	!	!LO:DY:b:t=ffr	!	!	!	!	!	!	!	!	!	!
4r	4r	.	8f/L	ff	.	.	.	.	.	.	.	.	.	.
.	.	.	8A-/	.	.	.	.	.	.	.	.	.	.	.
!	!	!LO:DY:b:t=pi:rj	!	!LO:DY:a:t=pi	!	!	!	!	!	!	!	!	!	!
4F\	8A-/L	p	8B-/	p	.	.	.	.	.	.	.	.	.	.
.	8A-/	.	8B-/	.	.	.	.	.	.	.	.	.	.	.
4BB-/	8A-/	.	8B-/	.	.	.	.	.	.	.	.	.	.	.
.	8A-/J	.	8B-/J	.	.	.	.	.	.	.	.	.	.	.
!	!	!	!LO:LB:g=original	!	!	!	!	!	!	!	!LO:LB:g=original	!	!	!
=63	=63	=63	=63	=63	=63	=63	=63	=63	=63	=63	=63	=63	=63	=63
!	!	!LO:DY:b:t=ffr:rj	!LO:TX:t=P:problem:mixed beam	!	!	!	!	!	!	!	!	!	!	!
8E-\L	16G/LL	ff	16G/LL	.	8r	.	8r	.	8r	.	8r	.	8r	8r
!	!	!	!	!LO:DY:b:t=ffr:rj	!	!	!	!	!	!	!	!	!	!
.	16g/	.	16b-\	ff	.	.	.	.	.	.	.	.	.	.
8A-\J	16a-/	.	16cc\	.	16r	.	16r	.	16r	.	16r	.	16r	16r
.	16f/JJ	.	16a-\JJ	.	16A-\	e-	16c\	e-	16a-\	e-	16ff\	e-	16ff\	16aa-\
4B-\	4e-/	.	4g/	.	4B-\	-ley-	2B-\	-ley-	(4g\	-ley-	4ee-\	-ley-	4ee-\	4gg\
4BB-/	4d/	.	4f/	.	4BB-/	.	.	.	4f\)	.	4dd\	.	4b-\	4ff\
=64	=64	=64	=64	=64	=64	=64	=64	=64	=64	=64	=64	=64	=64	=64
4E-\	2e-/	.	2e-/	.	4E-\	-ſon	2B-\	-son	2g\	-son	2ee-\	-ſon	4g/	4ee-\
4EE-/	.	.	.	.	4r	.	.	.	.	.	.	.	4r	4r
4r	4r	.	4r	.	4r	.	4r	.	4r	.	4r	.	4r	4r
=65	=65	=65	=65	=65	=65	=65	=65	=65	=65	=65	=65	=65	=65	=65
!	!	!	!	!LO:DY:b:t=ffr:rj	!	!	!	!	!	!	!LO:TX:a:t=4	!	!	!
4r	4r	.	8g|</L	ff	0.r	.	0.r	.	0.r	.	0.r	.	0.r	0.r
.	.	.	8B-/	.	.	.	.	.	.	.	.	.	.	.
!	!	!LO:DY:b:t=pi:rj	!	!LO:DY:a:t=pi	!	!	!	!	!	!	!	!	!	!
4G\	8B-/L	p	8B-/	p	.	.	.	.	.	.	.	.	.	.
.	8B-/	.	8B-/	.	.	.	.	.	.	.	.	.	.	.
4BB-/	8B-/	.	8B-/	.	.	.	.	.	.	.	.	.	.	.
.	8B-/J	.	8B-/J	.	.	.	.	.	.	.	.	.	.	.
!	!LO:LB:g=original	!	!	!	!	!	!	!	!	!	!	!	!	!
=66	=66	=66	=66	=66	=66	=66	=66	=66	=66	=66	=66	=66	=66	=66
!	!	!	!	!LO:DY:b:t=ffr	!	!	!	!	!	!	!	!	!	!
4r	4r	.	8f|</L	ff	.	.	.	.	.	.	.	.	.	.
.	.	.	8A-/	.	.	.	.	.	.	.	.	.	.	.
!	!	!LO:DY:b:t=pi:rj	!	!	!	!	!	!	!	!	!	!	!	!
4F\	8A-/L	p	8B-/	.	.	.	.	.	.	.	.	.	.	.
!	!	!	!	!LO:DY:a:t=pi	!	!	!	!	!	!	!	!	!	!
.	8A-/	.	8B-/	p	.	.	.	.	.	.	.	.	.	.
4BB-/	8A-/	.	8B-/	.	.	.	.	.	.	.	.	.	.	.
.	8A-/J	.	8B-/J	.	.	.	.	.	.	.	.	.	.	.
=67	=67	=67	=67	=67	=67	=67	=67	=67	=67	=67	=67	=67	=67	=67
!	!	!	!	!LO:DY:b:t=ffr	!	!	!	!	!	!	!	!	!	!
4r	4r	.	8g|</L	ff	.	.	.	.	.	.	.	.	.	.
.	.	.	8B-/	.	.	.	.	.	.	.	.	.	.	.
!	!	!LO:DY:b:t=pi:rj	!	!LO:DY:a:t=pi	!	!	!	!	!	!	!	!	!	!
4G\	8G/L	p	8B-/	p	.	.	.	.	.	.	.	.	.	.
.	8G/	.	8B-/	.	.	.	.	.	.	.	.	.	.	.
4BB-/	8G/	.	8B-/	.	.	.	.	.	.	.	.	.	.	.
.	8G/J	.	8B-/J	.	.	.	.	.	.	.	.	.	.	.
=68	=68	=68	=68	=68	=68	=68	=68	=68	=68	=68	=68	=68	=68	=68
!	!	!	!	!LO:DY:b:t=ffr	!	!	!	!	!	!	!	!	!	!
4r	4r	.	8f|</L	ff	.	.	.	.	.	.	.	.	.	.
.	.	.	8A-/	.	.	.	.	.	.	.	.	.	.	.
!	!	!LO:DY:b:t=pi:rj	!	!	!	!	!	!	!	!	!	!	!	!
4F\	8A-/L	p	8B-/	.	.	.	.	.	.	.	.	.	.	.
!	!	!	!	!LO:DY:a:t=pi	!	!	!	!	!	!	!	!	!	!
.	8A-/	.	8B-/	p	.	.	.	.	.	.	.	.	.	.
4BB-/	8A-/	.	8B-/	.	.	.	.	.	.	.	.	.	.	.
.	8A-/J	.	8B-/J	.	.	.	.	.	.	.	.	.	.	.
!	!	!	!LO:LB:g=original	!	!	!	!	!	!	!	!	!	!LO:LB:g=original	!
=69	=69	=69	=69	=69	=69	=69	=69	=69	=69	=69	=69	=69	=69	=69
!	!	!LO:DY:b:t=ffr:rj	!LO:TX:t=P:problem:mixed beam	!LO:DY:b:t=ffr:rj	!	!	!	!	!	!	!	!	!	!
8E-\L	16G/LL	ff	16G/LL	ff	8r	.	8r	.	8r	.	8r	.	8r	8r
.	16g/	.	16b-\	.	.	.	.	.	.	.	.	.	.	.
8A-\J	16a-/	.	16cc\	.	16r	.	16r	.	16r	.	16r	.	16r	16r
!	!	!	!	!	!LO:N:vis=4	!	!	!	!	!	!	!	!	!
.	16f/JJ	.	16a-\JJ	.	16A-\	e-	16c\	e-	16a-\	e-	16ff\	e-	16ff\	16aa-\
!	!	!	!	!	!LO:N:vis=4	!	!	!	!	!	!	!	!	!
4B-\	4e-/	.	4g/	.	4B-\	.	2B-\	-ley-	4g\	-ley-	4ee-\	-ley-	4ee-\	4gg\
4BB-/	4d/	.	4f/	.	4BB-/	-ley-	.	.	4f\	.	4dd\	.	4b-/	4ff\
=70	=70	=70	=70	=70	=70	=70	=70	=70	=70	=70	=70	=70	=70	=70
!LO:N:vis=2	!	!	!	!	!	!	!	!	!	!	!	!	!LO:TX:t=P:problem:jeden wykreślony takt	!
2.E-\	2e-/	.	2e-/	.	2E-\	-ſon	2B-\	-son	2g\	-son	2ee-\	-ſon	2g/	2ee-\
.	4r	.	4r	.	4r	.	4r	.	4r	.	4r	.	4r	4r
==	==	==	==	==	==	==	==	==	==	==	==	==	==	==
*-	*-	*-	*-	*-	*-	*-	*-	*-	*-	*-	*-	*-	*-	*-
!!!system-decoration: [(s1,s2)][(s3,s4,s5,s6)][(s7,s8)]s9
!!!RDF**kern: < = below
!!!RDF**kern: > = above
!!!RDF**kern: | = vertical stroke
!!!AIN: 1 alto 1 bass 2 cor 1 organ 1 soprn 1 tenor 2 violn
!!!ENC: Mateusz Solarz
!!!END: 2020-02-02
!!!ENC: Marta Chmielewska
!!!END: 2022-01-12
